img/icon-list-top.svg

<svg width="128" height="728" viewBox="0 0 128 728" fill="none" xmlns="http://www.w3.org/2000/svg">
<g clip-path="url(#clip0)">
<path d="M64.5057 336.977C58.3655 347.503 53.1699 358.164 53.1699 361.807C53.1699 368.083 58.2305 373.143 64.5057 373.143C70.7809 373.143 75.8415 368.083 75.8415 361.807C75.8415 358.164 70.6459 347.503 64.5057 336.977Z" fill="#1ED261"/>
<path d="M75.7061 390.956C75.7061 392.778 76.3808 394.465 77.6628 395.747C78.9449 397.029 80.6317 397.704 82.4536 397.704C84.2754 397.704 85.9623 397.029 87.2443 395.747C88.7287 394.195 91.0229 387.92 93.1821 380.228C85.5574 382.387 79.2148 384.681 77.6628 386.165C76.3808 387.447 75.7061 389.134 75.7061 390.956Z" fill="#1ED261"/>
<path d="M51.2814 385.491C49.662 384.142 43.1844 382.185 35.4248 380.565C38.0563 388.055 40.7553 394.195 42.3072 395.68C43.6567 396.894 45.4111 397.434 47.1654 397.367C48.9873 397.232 50.6067 396.422 51.8212 395.073C53.0358 393.723 53.643 391.969 53.5081 390.147C53.4406 388.393 52.6309 386.706 51.2814 385.491Z" fill="#1ED261"/>
<path d="M64.0337 300C28.6769 300 0 328.677 0 364.034C0 399.391 28.6769 428.067 64.0337 428.067C99.3906 428.067 128.067 399.391 128.067 364.034C128 328.677 99.3231 300 64.0337 300ZM97.2314 405.733C93.1829 409.782 87.7849 411.873 82.4544 411.873C78.6758 411.873 74.8297 410.861 71.5235 408.77V412.548H57.3537V408.635C54.5872 410.254 51.4159 411.266 48.1096 411.469C47.6373 411.469 47.2325 411.536 46.7602 411.536C41.6321 411.536 36.7739 409.714 32.9278 406.273C26.3152 400.47 20.5799 381.375 18.3532 373.413L15.5192 363.022L26.1803 364.574C29.3516 365.046 34.2098 365.788 39.4054 366.935C39.068 365.316 38.8656 363.629 38.8656 361.875C38.8656 358.366 39.9452 351.821 48.9868 335.492C53.7775 326.99 58.3658 319.973 58.5683 319.635L64.5061 310.594L70.4439 319.635C75.0322 326.653 90.0116 350.404 90.0116 361.807C90.0116 363.359 89.8766 364.911 89.6068 366.463C94.2625 365.181 98.5134 364.236 101.347 363.629L111.941 361.402L109.714 371.996C108.095 380.093 103.507 399.526 97.2314 405.733Z" fill="#1ED261"/>
</g>
<line x1="65" y1="426" x2="65" y2="728" stroke="#1ED261" stroke-width="14"/>
<defs>
<clipPath id="clip0">
<rect y="300" width="128" height="128" fill="white"/>
</clipPath>
</defs>
</svg>

<svg width="128" height="728" fill="none" xmlns="http://www.w3.org/2000/svg"><g clip-path="url(#clip0)" fill="#1ED261"><path d="M64.506 336.977c-6.14 10.526-11.336 21.187-11.336 24.83 0 6.276 5.06 11.336 11.336 11.336 6.275 0 11.335-5.06 11.335-11.336 0-3.643-5.195-14.304-11.335-24.83zM75.706 390.956c0 1.822.675 3.509 1.957 4.791 1.282 1.282 2.969 1.957 4.79 1.957 1.822 0 3.51-.675 4.791-1.957 1.485-1.552 3.779-7.827 5.938-15.519-7.625 2.159-13.967 4.453-15.52 5.937-1.281 1.282-1.956 2.969-1.956 4.791zM51.281 385.491c-1.619-1.349-8.097-3.306-15.856-4.926 2.631 7.49 5.33 13.63 6.882 15.115 1.35 1.214 3.104 1.754 4.858 1.687a6.87 6.87 0 004.656-2.294 6.59 6.59 0 001.687-4.926c-.067-1.754-.877-3.441-2.227-4.656z"/><path d="M64.034 300C28.677 300 0 328.677 0 364.034c0 35.357 28.677 64.033 64.034 64.033 35.357 0 64.033-28.676 64.033-64.033C128 328.677 99.323 300 64.034 300zM97.23 405.733a20.961 20.961 0 01-14.777 6.14c-3.778 0-7.624-1.012-10.93-3.103v3.778h-14.17v-3.913a20.891 20.891 0 01-9.244 2.834c-.473 0-.877.067-1.35.067-5.128 0-9.986-1.822-13.832-5.263-6.613-5.803-12.348-24.898-14.575-32.86l-2.834-10.391 10.661 1.552c3.172.472 8.03 1.214 13.225 2.361a24.735 24.735 0 01-.54-5.06c0-3.509 1.08-10.054 10.122-26.383 4.79-8.502 9.379-15.519 9.581-15.857l5.938-9.041 5.938 9.041c4.588 7.018 19.568 30.769 19.568 42.172 0 1.552-.135 3.104-.405 4.656 4.656-1.282 8.906-2.227 11.74-2.834l10.594-2.227-2.227 10.594c-1.619 8.097-6.207 27.53-12.483 33.737z"/></g><path stroke="#1ED261" stroke-width="14" d="M65 426v302"/><defs><clipPath id="clip0"><path fill="#fff" d="M0 300h128v128H0z"/></clipPath></defs></svg>
